src/assets/images/wave-white.svg

<?xml version="1.0" encoding="utf-8"?>
<!-- Generator: Adobe Illustrator 27.9.1, SVG Export Plug-In . SVG Version: 6.00 Build 0)  -->
<svg version="1.1" id="Layer_1" xmlns="http://www.w3.org/2000/svg" xmlns:xlink="http://www.w3.org/1999/xlink" x="0px" y="0px"
	 viewBox="0 0 1440 320" style="enable-background:new 0 0 1440 320;" xml:space="preserve">
<style type="text/css">
	.st0{fill:#F7F4F2;}
</style>
<path class="st0" d="M0,96l34.3-10.7C68.6,75,137,53,206,85.3C274.3,117,343,203,411,224c69,21,138-21,206-37.3
	c68.7-15.7,137-5.7,206,5.3c68.4,11,137,21,206,32c68.1,11,137,21,205,0c68.9-21,137-75,172-101.3l34-26.7v224h-34.3
	c-34.3,0-102.7,0-171.7,0c-68.3,0-137,0-205,0c-69,0-138,0-206,0c-68.7,0-137,0-206,0c-68.4,0-137,0-206,0c-68.1,0-137,0-205,0
	c-68.9,0-137,0-172,0H0V96z"/>
</svg>

<?xml version="1.0" standalone="no"?><svg xmlns="http://www.w3.org/2000/svg" viewBox="0 0 1440 320"><path fill="#f3f4f5" fill-opacity="1" d="M0,96L34.3,85.3C68.6,75,137,53,206,85.3C274.3,117,343,203,411,224C480,245,549,203,617,186.7C685.7,171,754,181,823,192C891.4,203,960,213,1029,224C1097.1,235,1166,245,1234,224C1302.9,203,1371,149,1406,122.7L1440,96L1440,320L1405.7,320C1371.4,320,1303,320,1234,320C1165.7,320,1097,320,1029,320C960,320,891,320,823,320C754.3,320,686,320,617,320C548.6,320,480,320,411,320C342.9,320,274,320,206,320C137.1,320,69,320,34,320L0,320Z"></path></svg>
